X: 49
T: the Soldier's Cloak
M: 6/8
L: 1/8
R: Jig
B: NEFR #49
K: D
|: ABA AFA | d2e f2d | ecA AGF | G3 F2G \
|  ABA AFA | d2e f2d | ecA ABc |1 d3 dcB :|2 d3 d2g |
|: fef def | g3 f/g/af | ecA AGF | G3 F2G \
|  ABA AFA | d2e f2d | ecA ABc |1 d3 d2g :|2 d3 dcB |]
